X:1
T:Rimsky-Korsakov Harmonic Exercises 26
T:Rimsky-Korsakov Harmonic Exercises 26
T:Realizations by S. Shchetnikov
T:"Practical Manual of Harmony" (1885)
C:Realizations by S. Shchetnikov
%%score { ( 1 2 ) | ( 3 4 ) }
L:1/8
Q:1/4=80
M:3/4
K:F
V:1 treble nm="Piano" snm="Pno."
V:2 treble 
V:3 bass 
V:4 bass 
V:1
"""^Example by Rimsky-Korsakov:""^Harmonisation of melodies with modulations""_F:" c2"" A""B"" c2 | %1
"" d3"" e"""_F:""_C:""_{" f2- | f2 f2 e2 | d4"""_C:""_F:""_{" c2 |"""_F:" c2"" A""B"" c2 | %5
"""" d3 e"""_d:""_F:""_{" f2 |"" f2"""" e3 g |"" f6 |] %8
[K:G][M:2/4]"^Exercise 26.1"[Q:1/4=70] DG EF | GA BB | Ad B^c | d4 | DG EF | GA BB | Ac FF | G4 | %16
 BA Ad | de fd | gf ^dd | e4 | fe d^d | e=d cB | Ac FF | G4 |] %24
"""^Realization 26.1""_G:" D""G"" E""F |"" G""A"" B""B |"" A""d"""_G:""_D:""_{" B^c | %27
"""_D:""_G:""_{" d4 |"""_G:" D""G"" E""F |"" G""A"" B""B |"" A""c"" F""F |"""_G:""_D:" G4 | %32
"_10""_D:" BA Ad | de"""_D:""_G:""_{" f""d |"""_G:""_e:""_{" gf ^dd |"""_e:""_G:""_{" e4 | %36
"""_G:" f""e"""_G:""_e:""_{" d^d |"""_e:""_a:""_{" e""=d"" c""B |"" A"""_a:""_G:""_{"c FF | G4 |] %40
V:2
 F6 | F3 B"" A2 |"" _A2"""" G4 |"" =A2"" G""F"" E2 | F6 | F2"""""_F:""_d:""_{" B2"" A2 | G4 B2 | %7
 A6 |][K:G][M:2/4] x4 | x4 | x4 | x4 | x4 | x4 | x4 | x4 | x4 | x4 | x4 | x4 | x4 | x4 | x4 | x4 |] %24
 B,D ED | D4 |"" D3"" G |"" F4 | B,D CD | D3 E | E2 DC |"" B,4 |"""" ^C2"" D""F |"""" G2"" F2 | %34
"" G""A"""" F2 |"" E4 | c2"" B""A |"" G^G AE |"" E2"""" D2 |"" D4 |] %40
V:3
 A,2 CD C2 | B,3 B, C2 | C2 =B,2 C2 | C2 =B,2 C2 | A,2 CD C2 | B,2 D^C D2 | D2 =C3 E | F6 |] %8
[K:G][M:2/4] z4 | z4 | z4 | z4 | z4 | z4 | z4 | z4 | z4 | z4 | z4 | z4 | z4 | z4 | z4 | z4 |] %24
 G,B, A,2 | G,F, G,2 | F,2 G,A, | A,4 | G,B, A,2 | G,F, G,2 | A,4 | G,4 | A,4 | B,^C D=C | %34
 B,C B,A, | G,4 | F,2 G,A, | B,2 A,^G, | A,3 C | B,4 |] %40
V:4
 F,3 B, A,2 | B,3 G, F,2 | D,4 E,2 | F,2 G,2 C,2 | F,3 B, A,2 | B,2 G,2 D,2 | B,2 C4 | F,6 |] %8
[K:G][M:2/4] x4 | x4 | x4 | x4 | x4 | x4 | x4 | x4 | x4 | x4 | x4 | x4 | x4 | x4 | x4 | x4 |] %24
 G,,2 C,2 | B,,A,, G,,B,, | D,2 G,E, | D,4 | G,,2 C,2 | B,,A,, G,,2 | C,A,, D,2 | G,,4 | G,2 F,D, | %33
 G,E, D,2 | E,A,, B,,2 | E,4 | D,2 G,F, | E,2 A,,B,, | C,2 D,2 | G,,4 |] %40

